!!!OTL: Der geheilte Bursche.
!!!OTL-incipit:ICH HATT MAL EINEN SCHWEREN STAND
!!!COM: G. W. Fink
!!!ARE: Europa, Mitteleuropa, Deutschland
!!!SCT: F0033
!!!YEM: Copyright 1995, estate of Helmut Schaffrath.
**kern	**text
*ICvox	*
*clefG2	*
*M4/4	*
*met(c)	*
*k[b-e-]	*
*B-:	*
!LO:TX:a:t=Etwas munter.	!
!LO:TX:a:t=P:only higher voice encoded:problem	!
{8f	1._Jch
=1	=1
8f	hatt'
8d	mal
8d	ei-
8f	-nen
8f	ſchweren
8d	.
8d	Stand,
8r	.
=2	=2
2b-/	Tral-
4f	-la,
8r}	.
{8f	mir
=3	=3
8e-	kam
8c	ein
8c	Mädel
8e-	.
8e-	vor
8c	die
8c	Hand,
8r	.
=4	=4
2cc/	tral-
4e-	-la,
8r}	.
{8e-	das
=5	=5
(8dL	Mäg-
8fJ)	.
(8fL	-de-
8b-J)	.
4.b-	-lein
8dd	war
=6	=6
16ddq	.
8.ccL	hübſch
16b-J	.
8.ccL	und
16ddJ	.
4.cc}	fein,
{8f	es
=7	=7
(8fL	hatt'
8aJ)	.
(8a/L	ſchwarʒbrau-
8ccJ)	.
4.cc	.
8ee-	-ne
=8	=8
16ee-q	.
8.ddL	Aeu-
16ccJ	.
8.ddL	-ge-
16ee-J	.
4dd	-lein,
8r}	.
{8ff	tral-
=9	=9
*M3/2	*
8.ff	-li-
16ee-	-rum
8dd	la-
8dd	-rum
8ee-	hop-
8cc/	-ſa-
8cc/	-ſa
8cc/	ſa-
4cc/	-ſa,
8r}	.
{8cc/	es
=10	=10
*M4/4	*
*met(c)	*
8.dd	hatt'
16cc	ſchwarʒbraune
8b-/	.
8b-/	.
8cc	Aeu-
8cc	-ge-
8cc	-lein,
8dd^^	tral-
=11	=11
2b-/	-la!
4r	.
8r}	.
==	==
!!!AGN: Liebes - Lied, Scherz
!!!GTL: Volkslieder
!!!ONB: ESAC (Essen Associative Code) Database: FINK
!!!AMT: simple quadruple
!!!AIN: vox
!!!EED: Helmut Schaffrath
!!!EEV: 1.0
!!Text: G. W. Fink
!!@@COMMENT:" Aus G. W. Finke Volksliedern. Leipzig, bei G. 8. Peters.[...]"
!!@@END:
!!!source: Musikalischer Hausschatz der Deutschen. Eine Sammlung von über 1000 Liedern und Gesängen mit Singstimmen und Klavierbegleitung. Leipzig, Litterarisches Verlags-Haus.
!!!page: 12
!!!URL-scan: https://www.digitale-sammlungen.de/en/view/bsb11144622?page=24,25
!!!ENC: Anna Maria Matuszewska
!!!EEV: 2024/07/25
*-	*-
